// SCSCC #35 "Fitba"
// - - - - - - - - - - - - - - - - - - - - - - - - - - -

play{Splay.ar(lag(StandardL.ar(5555,_.degrad!20/60+1s)/7,0s1))}

// - - - - - - - - - - - - - - - - - - - - - - - - - - -
//  https://sco.wikipedia.org/wiki/Fitba
// 