// SCSCC-39 "SUPA!."
// - - - - - - - - - - - -

b=Buffer.read(s,ExampleFiles.child);play{Warp1.ar(1,b,Demand.ar(t=TDuty.ar(Dseq([1,11,1b,11]/11,inf)),0,Dseq([100,19,156b,140]*1e3,inf)/188893),TIRand.ar(-3,3,t).midiratio,1/7,-1,5,0.2!2,4)/3}