// SCSCC-48 Terror Tec 🥇🏀
// - - - - - - - - - - - - - - - - - - - - - - - - - - - - - -

play{z=ar(LFSaw,_,1);LeakDC.ar(z.(kr(d=Duty,t=1/19,0,Dseq([41!18,39!14,55!12,52!20].flat,i=inf)))*d.kr(t,0,Dseq(flat({|n|[7967,29653,29127,30524]@n>>_!16&1}!4),i))/4+z.(z.(-19/8).max**4*164).abs)!2}