// SCSCC-22 "Siv" 235
// - - - - - - - - - - - - - - - - -

play({z=ar(y=LFSaw,_);BRF.ar(Splay.ar(z.((e=1/4>z.(h=1/2))/2+1*[82,146,195,246]*(z.(0s+_!4*3).abs/24+1)),z.(h)),z.(h/(9/7+z.(h/34)**2*4)).abs*4e3+82,4)*(ar(y,-8,1)+1/2**(z.(h/27).abs*8+h)+(slew(e,1e3)**(z.(h/46).abs*3+h)))/5},s,\fade,9)

