// SCSCC #36 "LFSausy Hats"
// - - - - - - - - - - - - - - - - - - - - - - - - - - -

play{z={|a|LFSaw.ar(-1*a,1)};z.(8)+1/2**(z.(2)>0**6*6+1b)/3*HPF.ar(APF.ar(n=z.(42*_!7+(0s*f=7777)).sum,f/2,z.(1/18).abs**0s),f).clip2/8+(sin(pi*z.(z.(2)+1/2**32*110+55))*lag(z.(2)+1/2,0s1)/3)+sum(z.(n/4+1*[540,800]).sum/88*(z.(8/[7,13,11]).max**8))!2}