// SCSCC-44 "She's homeless..." 252 bytes
// - - - - - - - - - - - - - - - - - - - - - - - - - - - - - - -

play{(t=kr(z=LFSaw,-8/(kr(z,1/2,1)<(-1/2)+3),1)+1)>0.3/1.3+(t/2**8)+0.3*sum(LFPar.ar(midiratio(Select.kr(Demand.kr(t>0s,0,Dseq([2,6,0,0,2,4,0,0]+.x[0,0,1,1,1],inf)),clump("Z]adhZ]adfU_adhVabfiS_bfiX_bdh\\hkor[gknr".ascii-90,5)))*147*.x[1,2,3,6]))/44!2}
