// SCSCC-41 "fifs"
// - - - - - - - - - - - - - - - - - - - - - -

play{z=LFSaw.ar(_,_);CombC.ar(o=Splay.ar((t=z.(-8/(z.(1/2,1)<0.5+2),-1)+1/2)**2*z.(f=131*midiratio(floor(z.(1/32,0)*8)*5+round(3s*z.(1/8,1/16).max,2)+[9,4,7,0]%12+.x[19,0]),0)**(2s-t))/3,1/4,1/4)/4+o}